X:5
T:Fiddler's Joy
R:Strathspey
Z:Transcribed 31 May, 2018 by Stephen Beitzel
C:Trad., arr. by Adam Blaine
M:C
L:1/8
K:D
Q:"116 bpm"
[|: {Gdc}d2 {g}f<a {AGAG}A>a f/e/d | {gcd}c2 {e}A>{d}c {g}e>f {a}g/f/e | {Gdc}d2 {g}f<a {AGAG}A>a f/e/d | {gcd}c<{e}A {a}g/f/e {Gdc}d2 {gdG}d>A :|]
{Gdc}d>e {g}f>d {g}f<a {fg}f>d | {gf}g>A {gef}e>d {g}c<e {g}A/B/c | {Gdc}d>e {g}f>d {g}f<a {fg}f>d | {gcd}c<{e}A {a}g/f/e {Gdc}d2 {gdG}d>A |
{Gdc}d>e {g}f>d {g}f<a {fg}f>d | {gf}g>A {gef}e>d {g}c<e {A}e/f/g | a/g/f {a}g/f/e {g}f/e/d {g}e/f/g [M:2/4] | {cd}c<{e}A {a}g/f/e [M:C|] | "Reel Tempo" {Gdc}d4 {g}B2c2 |]

